dist/img/icons/socials/tg.svg

<svg width="36" height="31" viewBox="0 0 36 31" fill="none" xmlns="http://www.w3.org/2000/svg">
<path fill-rule="evenodd" clip-rule="evenodd" d="M31.6086 0.206079C32.0421 0.0236071 32.5166 -0.0393263 32.9828 0.0238286C33.4489 0.0869834 33.8895 0.273918 34.2589 0.565176C34.6283 0.856434 34.9128 1.24137 35.0829 1.67991C35.253 2.11845 35.3025 2.59457 35.2261 3.05871L31.2472 27.1938C30.8612 29.5219 28.3068 30.857 26.1717 29.6973C24.3858 28.7271 21.7331 27.2324 19.3472 25.6727C18.1542 24.892 14.4998 22.392 14.9489 20.6131C15.3349 19.092 21.4752 13.3763 24.984 9.97801C26.3612 8.64292 25.7331 7.87275 24.1068 9.10082C20.0665 12.1499 13.584 16.7868 11.4402 18.092C9.54893 19.2429 8.56296 19.4394 7.38401 19.2429C5.23314 18.885 3.2384 18.3306 1.61033 17.6552C-0.58967 16.7429 -0.482653 13.7184 1.60858 12.8377L31.6086 0.206079Z" fill="#C9CDCA"/>
</svg>

<svg width="36" height="31" viewBox="0 0 36 31" fill="none" xmlns="http://www.w3.org/2000/svg"><path fill-rule="evenodd" clip-rule="evenodd" d="M31.609.206a2.631 2.631 0 013.617 2.853l-3.979 24.135c-.386 2.328-2.94 3.663-5.075 2.503-1.786-.97-4.439-2.465-6.825-4.024-1.193-.781-4.847-3.281-4.398-5.06.386-1.521 6.526-7.237 10.035-10.635 1.377-1.335.75-2.105-.877-.877-4.04 3.049-10.523 7.686-12.667 8.991-1.891 1.15-2.877 1.347-4.056 1.15-2.15-.357-4.146-.911-5.774-1.587-2.2-.912-2.093-3.937-.001-4.817l30-12.632z" fill="#C9CDCA"/></svg>
